X:1
P: Mason's Apron
C: from R. Miller/New England Fiddlers Repertoire
C: Arr. T. Traub 8-10-03
R: reel
M: 4/4
K: A
L: 1/8
|: ed|"A"c2 A2 ABAF|"A"EFAB c2 BA|"Bm"d2 B2 BcBA|"D"Bcde "E"f2 ed|"A"c2 A2 ABAF|
"A"EFAB c2 BA|"Bm"Bcde "D"fefa|"E"edcB A2 :||: ed|"A"cAeA fAeA|"A"cAeA fedc|
"Bm"dBfB gBfB|"Bm"dBfB "E"gfed|"A"cAeA fAeA|"A"cAeA fedc|"Bm"Bcde "D"fefa|"E"edcB "A"A2 :|
